X: 9007
T: Da Auld Resting Chair
R: barndance
M: 4/4
K: Gmajor
|:D2|B3 c A3 B|G2 d2 B2 G2|c2 A2 B2 G2|E2 AG F2 D2|
B3 c A3 B|G2 d2 B2 G2|c2 A2 D2 F2|G6:|
d2|cBAG g3 d|e2 g2 d2 B2|c3 d B2 G2|E2 AG F2 D2|
cBAG g3 d|e2 g2 d2 B2|c3 e d2 F2|G6 d2|
cBAG g3 d|e2 g2 d2 B2|c3 d B2 G2|E2 AG F2 D2|
B3 c A3 B|G2 d2 B2 G2|c2 A2 D2 F2|G8||

